X:1
T:Nothing But the Blood
T:Robert Lowry, 1876
T:Nothing But the Blood
T:Public Domain
T:Public Domain
C:Robert Lowry, 1876
Z:Public Domain
%%score ( 1 2 ) ( 3 4 )
L:1/8
M:4/4
K:F
V:1 treble 
V:2 treble 
V:3 bass 
V:4 bass 
V:1
 [CF]2 [CF]2 [CF]2 [EG]2 | [FA]2 [Ac]2 [FA]4 | [CF]>[CF] [CF]>[CG] [FA]2 [FA]2 [EG]4 F4 | %3
w: 1.~What can wash a-|way my sin?|No- thing but the blood of Je- sus;|
w: 2.~For my par- don,|this I see,|No- thing but the blood of Je- sus;|
w: 3.~No- thing can for|sin a- tone,|No- thing but the blood of Je- sus;|
w: 4.~This is all my|hope and peace,|No- thing but the blood of Je- sus;|
w: 5.~Now by this I’ll|o- ver- come—|No- thing but the blood of Je- sus,|
w: 6.~Glo- ry! Glo- ry!|This I sing—|No- thing but the blood of Je- sus,|
 [CF]2 [CF]2 [CF]2 [EG]2 | [FA]2 [Ac]2 [FA]4 | [CF]>[CF] [CF]>[CG] [FA]2 [FA]2 | [EG]4 F4 || %7
w: can make me whole|a- gain? No-|thing but the blood of Je-|sus. *|
w: my cleans- ing this|my plea, No-|thing but the blood of Je-|sus. *|
w: of good that I|have done, No-|thing but the blood of Je-|sus. *|
w: is all my right-|eous- ness, No-|thing but the blood of Je-|sus. *|
w: by this I’ll reach|my home— N-|othing but the blood of Je-|sus. *|
w: my praise for this|I bring— No-|thing but the blood of Je-|sus. *|
"^Refrain" [Fc]4 [FA]2 [EG]2 [FA]2 [Fc]2 [FA]4 | [EG]4 [EG]2 F2 | [EG]2 [EG]2 (A2 c2) | %10
w: |||
w: |||
w: |||
w: |||
w: |||
w: |||
 [Fc]4 [FA]2 [EG]2 | [FA]2 [Fc]2 [FA]4 | [CF]>[CF] [CF]>[CG] [FA]2 [FA]2 | [EG]4 F4 |] %14
w: ||||
w: ||||
w: ||||
w: ||||
w: ||||
w: ||||
V:2
 x8 | x8 | x12 F4 | x8 | x8 | x8 | x4 F4 || x16 | x8 | x4 F4 | x8 | x8 | x8 | x4 F4 |] %14
w: ||What||||||||||||
w: ||For||||||||||||
w: ||Naught||||||||||||
w: ||This||||||||||||
w: ||Now||||||||||||
w: ||All||||||||||||
V:3
 [F,A,]2 [F,A,]2 [F,A,]2 [C,C]2 | [F,C]2 [F,C]2 [F,C]4 | %2
w: ~ ~ ~ ~|~ ~ ~|
 [F,A,]>[F,A,] [F,A,]>[F,B,] [F,C]2 [F,C]2 [C,B,]4 [F,A,]4 | [F,A,]2 [F,A,]2 [F,A,]2 [C,C]2 | %4
w: ~ ~ ~ ~ ~ ~ ~ ~|~ ~ ~ ~|
 [F,C]2 [F,C]2 [F,C]4 | [F,A,]>[F,A,] [F,A,]>[F,B,] [F,C]2 [F,C]2 | [C,B,]4 [F,A,]4 || %7
w: ~ ~ ~|~ ~ ~ ~ ~ ~|~ ~|
 [F,A,]4 [F,C]2 [C,C]2 [F,C]2 [F,A,]2 [F,C]4 | [C,B,]4 [C,B,]2 [D,A,]2 | [C,C]2 [C,C]2 (C2 A,2) | %10
w: Oh! pre- cious is the flow|That makes me|white as snow; *|
 [F,A,]4 [F,C]2 [C,C]2 | [F,C]2 [F,A,]2 [F,C]4 | [F,A,]>[F,A,] [F,A,]>[F,B,] [F,C]2 [F,,C]2 | %13
w: o- ther fount|I know, No-|thing but the blood of Je-|
 [C,B,]4 [F,,F,A,]4 |] %14
w: sus. *|
V:4
 x8 | x8 | x16 | x8 | x8 | x8 | x8 || x16 | x8 | x4 F,4 | x8 | x8 | x8 | x8 |] %14
w: |||||||||No|||||

